papirus/32x32/apps/google-play-music-desktop-player.svg

<svg height="32" viewBox="0 0 32 32" width="32" xmlns="http://www.w3.org/2000/svg"><path d="m26.860038 14.426366l-21.1209626-12.0639051c-.9024699-.5092941-1.709943-.4615478-2.2007599.0159154l0 0c-.3483218.3342243-.5383155.8753493-.5383155 1.5756288v24.0800639c0 .70028.2058266 1.241406.5383155 1.575629l0 0c .5066497.49338 1.29829.541126 2.2007599.01592l21.1209626-12.063908c1.519949-.859434 1.519949-2.259993 0-3.135342z" fill="#eb4d27"/><path d="m4.484375 2c-.3760291.0079577-.699904.1401746-.9453125.3789062-.3483218.3342243-.5390625.8739393-.5390625 1.5742188v1c0-.7002795.1907407-1.2399944.5390625-1.5742188.4908169-.4774632 1.2967489-.524919 2.1992187-.015625l21.1210938 12.0624998c.533909.307482.870478.681392 1.029297 1.072266.292395-.718471-.043832-1.50473-1.029297-2.072266l-21.1210938-12.0624998c-.4512349-.254647-.8778771-.3712389-1.2539062-.3632812z" fill="#fff" opacity=".2"/><path d="m15.5 5c-1.360993 0-2.658104.2669797-3.851562.7382812l-.003907-.0019531a10.5 10.5 0 0 0 -.035156.015625c-.274738.1097551-.541964.2335093-.804687.3652344a10.5 10.5 0 0 0 -.148438.0722656c-.258665.134828-.508437.282321-.7539062.4375a10.5 10.5 0 0 0 -.1484376.0898438c-.2308923.1513546-.4521638.3157942-.6699218.484375a10.5 10.5 0 0 0 -.1835938.1367187c-.1968566.1593414-.3816795.3309922-.5664062.5039063a10.5 10.5 0 0 0 -.2128906.1933593c-.2283736.225756-.4453449.4612435-.6523438.7070313a10.5 10.5 0 0 0 -.0371094.0410156c-.8863881 1.0637707-1.5643681 2.3057999-1.9765625 3.6640629a10.5 10.5 0 0 0 -.0136719.050781c-.094207.316129-.1757749.63895-.2402343.966797a10.5 10.5 0 0 0 -.0195313.121094c-.0539764.292552-.0997247.586207-.1289062.886718a10.5 10.5 0 0 0 -.0527344 1.027344c0 .330233.0190035.656069.0488281.978516a10.5 10.5 0 0 0  .0234375.197265c.031298.280477.0740036.556722.1269532.830078a10.5 10.5 0 0 0  .0273437.136719c.2131326 1.026649.5754179 1.997725 1.0644531 2.890625.3378973.616947.7352396 1.19473 1.1855469 1.728516 1.1107381 1.316648 2.5338465 2.361582 4.1621095 3.005859.016838.006663.028976-.003747.044922 0a10.5 10.5 0 0 0 1.064453.353516l12.867187-7.347656a10.5 10.5 0 0 0  .384766-2.773438c0-.452855-.038129-.896237-.09375-1.333984a10.5 10.5 0 0 0 -.041016-.308594l-.007812-.003906c-.791982-5.0146266-5.120155-8.853516-10.357422-8.853516z" fill="#ffd739"/><circle cx="15.5" cy="15.5" fill="#ff8c00" r="6.5"/><path d="m27.888672 15.498047c-.158586.389675-.494813.762237-1.029297 1.064453l-21.1210938 12.0625c-.9024698.525206-1.692569.477755-2.1992187-.015625-.3324889-.334223-.5390625-.875892-.5390625-1.576172v1c0 .70028.2065736 1.241949.5390625 1.576172.5066497.49338 1.2967489.540831 2.1992187.015625l21.1210938-12.0625c.98604-.557543 1.322609-1.342574 1.029297-2.064453z" opacity=".3"/><path d="m15.5 5c-1.360993 0-2.658105.2669798-3.851562.7382812l-.003907-.0019531a10.5 10.5 0 0 0 -.035156.015625c-.274738.1097551-.541964.2335093-.804687.3652344a10.5 10.5 0 0 0 -.148438.0722656c-.258665.134828-.508437.282321-.7539062.4375a10.5 10.5 0 0 0 -.1484376.0898438c-.2308922.1513546-.4521638.3157942-.6699218.484375a10.5 10.5 0 0 0 -.1835938.1367187c-.1968566.1593414-.3816795.3309922-.5664062.5039063a10.5 10.5 0 0 0 -.2128906.1933593c-.2283737.2257561-.4453449.4612435-.6523438.7070313a10.5 10.5 0 0 0 -.0371094.0410156c-.8863881 1.0637707-1.5643681 2.3057999-1.9765625 3.6640629a10.5 10.5 0 0 0 -.0136719.050781c-.0942069.316129-.1757749.63895-.2402343.966797a10.5 10.5 0 0 0 -.0195313.121094c-.0539764.292551-.0997247.586207-.1289062.886718a10.5 10.5 0 0 0 -.0527344 1.027344c0 .171379.0162981.338661.0253906.507812a10.5 10.5 0 0 1  .0273438-.535156c.0291812-.300511.0749302-.594166.1289062-.886718a10.5 10.5 0 0 1  .0195313-.121094c.0644594-.327847.1460274-.650668.2402343-.966797a10.5 10.5 0 0 1  .0136719-.050781c.4121944-1.358263 1.090174-2.600292 1.9765625-3.6640629a10.5 10.5 0 0 1  .0371094-.0410156c.2069989-.2457878.4239701-.4812753.6523438-.7070313a10.5 10.5 0 0 1  .2128906-.1933593c.1847267-.1729141.3695496-.3445649.5664062-.5039063a10.5 10.5 0 0 1  .1835938-.1367187c.217758-.1685808.4390296-.3330204.6699218-.484375a10.5 10.5 0 0 1  .1484376-.0898438c.2454692-.155179.4952412-.302672.7539062-.4375a10.5 10.5 0 0 1  .148438-.0722656c.262723-.1317251.529949-.2554793.804687-.3652344a10.5 10.5 0 0 1  .035156-.015625l.003907.0019531c1.193457-.4713015 2.490569-.7382812 3.851562-.7382812 5.237267 0 9.565432 3.838883 10.357422 8.853516l.007812.003906a10.5 10.5 0 0 1  .041016.308594c.040798.32109.054528.649846.068359.978515a10.5 10.5 0 0 0  .025391-.644531c0-.452855-.038129-.896237-.09375-1.333984a10.5 10.5 0 0 0 -.041016-.308594l-.007812-.003906c-.791982-5.014627-5.120155-8.853516-10.357422-8.853516z" fill="#fff" opacity=".2"/></svg>

<?xml version="1.0" encoding="UTF-8" standalone="no"?>
<svg
   xmlns:dc="http://purl.org/dc/elements/1.1/"
   xmlns:cc="http://creativecommons.org/ns#"
   xmlns:rdf="http://www.w3.org/1999/02/22-rdf-syntax-ns#"
   xmlns:svg="http://www.w3.org/2000/svg"
   xmlns="http://www.w3.org/2000/svg"
   xmlns:sodipodi="http://sodipodi.sourceforge.net/DTD/sodipodi-0.dtd"
   xmlns:inkscape="http://www.inkscape.org/namespaces/inkscape"
   x="0px"
   y="0px"
   viewBox="0 0 32 32"
   hola_ext_inject="disabled"
   id="svg2"
   version="1.1"
   inkscape:version="0.91 r13725"
   sodipodi:docname="google-play-music-desktop-player.svg"
   width="32"
   height="32">
  <metadata
     id="metadata54">
    <rdf:RDF>
      <cc:Work
         rdf:about="">
        <dc:format>image/svg+xml</dc:format>
        <dc:type
           rdf:resource="http://purl.org/dc/dcmitype/StillImage" />
        <dc:title></dc:title>
      </cc:Work>
    </rdf:RDF>
  </metadata>
  <defs
     id="defs52" />
  <sodipodi:namedview
     pagecolor="#ffffff"
     bordercolor="#666666"
     borderopacity="1"
     objecttolerance="10"
     gridtolerance="10"
     guidetolerance="10"
     inkscape:pageopacity="0"
     inkscape:pageshadow="2"
     inkscape:window-width="1600"
     inkscape:window-height="853"
     id="namedview50"
     showgrid="false"
     inkscape:zoom="1"
     inkscape:cx="33.880258"
     inkscape:cy="13.887535"
     inkscape:window-x="0"
     inkscape:window-y="26"
     inkscape:window-maximized="1"
     inkscape:current-layer="svg2" />
  <linearGradient
     id="a"
     x1="98.985703"
     x2="98.985703"
     y1="183.6666"
     y2="7.9380002"
     gradientUnits="userSpaceOnUse"
     gradientTransform="matrix(0.2279924,0,0,0.22736347,1.4173528,2.1759583)">
    <stop
       offset="0"
       stop-color="#FFF"
       stop-opacity="0"
       id="stop11" />
    <stop
       offset="1"
       stop-color="#FFF"
       stop-opacity="0.1"
       id="stop13" />
  </linearGradient>
  <linearGradient
     id="b"
     x1="104.3169"
     x2="119.2413"
     y1="110.4006"
     y2="136.2504"
     gradientUnits="userSpaceOnUse"
     gradientTransform="matrix(0.22727311,0,0,0.22727311,1.4545378,2.1925796)">
    <stop
       offset="0"
       stop-color="#991700"
       stop-opacity="0"
       id="stop24" />
    <stop
       offset="1"
       stop-color="#991700"
       stop-opacity="0.1"
       id="stop26" />
  </linearGradient>
  <path
     style="fill:#eb4d27;fill-opacity:1"
     inkscape:connector-curvature="0"
     d="M 26.860038,14.426366 5.7390754,2.3624609 C 4.8366055,1.8531668 4.0291324,1.9009131 3.5383155,2.3783763 l 0,0 C 3.1899937,2.7126006 3,3.2537256 3,3.9540051 L 3,28.034069 c 0,0.70028 0.2058266,1.241406 0.5383155,1.575629 l 0,0 c 0.5066497,0.49338 1.29829,0.541126 2.2007599,0.01592 L 26.860038,17.56171 c 1.519949,-0.859434 1.519949,-2.259993 0,-3.135342 z"
     id="path8" />
  <path
     style="fill:#ffffff;fill-opacity:1;opacity:0.2"
     d="M 4.484375 2 C 4.1083459 2.0079577 3.784471 2.1401746 3.5390625 2.3789062 C 3.1907407 2.7131305 3 3.2528455 3 3.953125 L 3 4.953125 C 3 4.2528455 3.1907407 3.7131306 3.5390625 3.3789062 C 4.0298794 2.901443 4.8358114 2.8539872 5.7382812 3.3632812 L 26.859375 15.425781 C 27.393284 15.733263 27.729853 16.107173 27.888672 16.498047 C 28.181067 15.779576 27.84484 14.993317 26.859375 14.425781 L 5.7382812 2.3632812 C 5.2870463 2.1086342 4.8604041 1.9920423 4.484375 2 z "
     id="path4296" />
  <path
     style="opacity:1;fill:#ffd739;fill-opacity:1;stroke:none;stroke-width:8;stroke-linecap:round;stroke-linejoin:round;stroke-miterlimit:4;stroke-dasharray:none;stroke-opacity:1"
     d="M 15.5 5 C 14.139007 5 12.841896 5.2669797 11.648438 5.7382812 L 11.644531 5.7363281 A 10.5 10.5 0 0 0 11.609375 5.7519531 C 11.334637 5.8617082 11.067411 5.9854624 10.804688 6.1171875 A 10.5 10.5 0 0 0 10.65625 6.1894531 C 10.397585 6.3242811 10.147813 6.4717741 9.9023438 6.6269531 A 10.5 10.5 0 0 0 9.7539062 6.7167969 C 9.5230139 6.8681515 9.3017424 7.0325911 9.0839844 7.2011719 A 10.5 10.5 0 0 0 8.9003906 7.3378906 C 8.703534 7.497232 8.5187111 7.6688828 8.3339844 7.8417969 A 10.5 10.5 0 0 0 8.1210938 8.0351562 C 7.8927202 8.2609122 7.6757489 8.4963997 7.46875 8.7421875 A 10.5 10.5 0 0 0 7.4316406 8.7832031 C 6.5452525 9.8469738 5.8672725 11.089003 5.4550781 12.447266 A 10.5 10.5 0 0 0 5.4414062 12.498047 C 5.3471992 12.814176 5.2656313 13.136997 5.2011719 13.464844 A 10.5 10.5 0 0 0 5.1816406 13.585938 C 5.1276642 13.87849 5.0819159 14.172145 5.0527344 14.472656 A 10.5 10.5 0 0 0 5 15.5 C 5 15.830233 5.0190035 16.156069 5.0488281 16.478516 A 10.5 10.5 0 0 0 5.0722656 16.675781 C 5.1035636 16.956258 5.1462692 17.232503 5.1992188 17.505859 A 10.5 10.5 0 0 0 5.2265625 17.642578 C 5.4396951 18.669227 5.8019804 19.640303 6.2910156 20.533203 C 6.6289129 21.15015 7.0262552 21.727933 7.4765625 22.261719 C 8.5873006 23.578367 10.010409 24.623301 11.638672 25.267578 C 11.65551 25.274241 11.667648 25.263831 11.683594 25.267578 A 10.5 10.5 0 0 0 12.748047 25.621094 L 25.615234 18.273438 A 10.5 10.5 0 0 0 26 15.5 C 26 15.047145 25.961871 14.603763 25.90625 14.166016 A 10.5 10.5 0 0 0 25.865234 13.857422 L 25.857422 13.853516 C 25.06544 8.8388894 20.737267 5 15.5 5 z "
     id="path4287" />
  <circle
     style="fill:#ff8c00"
     cx="15.5"
     cy="15.5"
     id="circle21"
     r="6.5" />
  <path
     style="fill:#000000;fill-opacity:1;opacity:0.3"
     d="M 27.888672 15.498047 C 27.730086 15.887722 27.393859 16.260284 26.859375 16.5625 L 5.7382812 28.625 C 4.8358114 29.150206 4.0457122 29.102755 3.5390625 28.609375 C 3.2065736 28.275152 3 27.733483 3 27.033203 L 3 28.033203 C 3 28.733483 3.2065736 29.275152 3.5390625 29.609375 C 4.0457122 30.102755 4.8358114 30.150206 5.7382812 29.625 L 26.859375 17.5625 C 27.845415 17.004957 28.181984 16.219926 27.888672 15.498047 z "
     id="path4301" />
  <path
     style="opacity:0.2;fill:#ffffff;fill-opacity:1;stroke:none;stroke-width:8;stroke-linecap:round;stroke-linejoin:round;stroke-miterlimit:4;stroke-dasharray:none;stroke-opacity:1"
     d="M 15.5 5 C 14.139007 5 12.841895 5.2669798 11.648438 5.7382812 L 11.644531 5.7363281 A 10.5 10.5 0 0 0 11.609375 5.7519531 C 11.334637 5.8617082 11.067411 5.9854624 10.804688 6.1171875 A 10.5 10.5 0 0 0 10.65625 6.1894531 C 10.397585 6.3242811 10.147813 6.4717741 9.9023438 6.6269531 A 10.5 10.5 0 0 0 9.7539062 6.7167969 C 9.523014 6.8681515 9.3017424 7.0325911 9.0839844 7.2011719 A 10.5 10.5 0 0 0 8.9003906 7.3378906 C 8.703534 7.497232 8.5187111 7.6688828 8.3339844 7.8417969 A 10.5 10.5 0 0 0 8.1210938 8.0351562 C 7.8927201 8.2609123 7.6757489 8.4963997 7.46875 8.7421875 A 10.5 10.5 0 0 0 7.4316406 8.7832031 C 6.5452525 9.8469738 5.8672725 11.089003 5.4550781 12.447266 A 10.5 10.5 0 0 0 5.4414062 12.498047 C 5.3471993 12.814176 5.2656313 13.136997 5.2011719 13.464844 A 10.5 10.5 0 0 0 5.1816406 13.585938 C 5.1276642 13.878489 5.0819159 14.172145 5.0527344 14.472656 A 10.5 10.5 0 0 0 5 15.5 C 5 15.671379 5.0162981 15.838661 5.0253906 16.007812 A 10.5 10.5 0 0 1 5.0527344 15.472656 C 5.0819156 15.172145 5.1276646 14.87849 5.1816406 14.585938 A 10.5 10.5 0 0 1 5.2011719 14.464844 C 5.2656313 14.136997 5.3471993 13.814176 5.4414062 13.498047 A 10.5 10.5 0 0 1 5.4550781 13.447266 C 5.8672725 12.089003 6.5452521 10.846974 7.4316406 9.7832031 A 10.5 10.5 0 0 1 7.46875 9.7421875 C 7.6757489 9.4963997 7.8927201 9.2609122 8.1210938 9.0351562 A 10.5 10.5 0 0 1 8.3339844 8.8417969 C 8.5187111 8.6688828 8.703534 8.497232 8.9003906 8.3378906 A 10.5 10.5 0 0 1 9.0839844 8.2011719 C 9.3017424 8.0325911 9.523014 7.8681515 9.7539062 7.7167969 A 10.5 10.5 0 0 1 9.9023438 7.6269531 C 10.147813 7.4717741 10.397585 7.3242811 10.65625 7.1894531 A 10.5 10.5 0 0 1 10.804688 7.1171875 C 11.067411 6.9854624 11.334637 6.8617082 11.609375 6.7519531 A 10.5 10.5 0 0 1 11.644531 6.7363281 L 11.648438 6.7382812 C 12.841895 6.2669797 14.139007 6 15.5 6 C 20.737267 6 25.065432 9.838883 25.857422 14.853516 L 25.865234 14.857422 A 10.5 10.5 0 0 1 25.90625 15.166016 C 25.947048 15.487106 25.960778 15.815862 25.974609 16.144531 A 10.5 10.5 0 0 0 26 15.5 C 26 15.047145 25.961871 14.603763 25.90625 14.166016 A 10.5 10.5 0 0 0 25.865234 13.857422 L 25.857422 13.853516 C 25.06544 8.838889 20.737267 5 15.5 5 z "
     id="path4306" />
</svg>
